svg/color/lmton.svg

<svg width="40" height="40" viewBox="0 0 40 40" fill="none" xmlns="http://www.w3.org/2000/svg">
<g clip-path="url(#clip0_821_3987)">
<path d="M20 0C31.0457 0 40 8.9543 40 20C40 31.0457 31.0457 40 20 40C8.95431 40 7.90517e-06 31.0457 0 20C6.58765e-07 8.95431 8.95431 1.97595e-06 20 0Z" fill="#CCD8E1"/>
<path d="M26 6C30.4183 6 34 9.58172 34 14V26C34 30.4183 30.4183 34 26 34H14C9.58172 34 6 30.4183 6 26V14C6 9.58172 9.58172 6 14 6H26Z" fill="#003E69"/>
<path d="M24.738 11.9165C24.738 11.9165 23.8969 14.8717 22.9696 18.3439H30C29.9831 18.3518 25.9366 20.2462 21.8905 22.2909C21.0064 25.6116 20.3587 27.8546 20.2507 28.2218L20.2295 28.2869C20.2328 28.2483 21.3298 22.5708 21.3298 22.5708C19.3937 23.5523 13.8795 26.4378 10 28.4709V28.2959L21.4591 21.8172L21.9556 19.2074L18.6556 19.1211C18.6213 19.1522 14.8847 22.5465 14.7949 22.6359C14.8403 22.5902 15.94 21.3174 18.0298 19.0983L10 18.894V18.3643L18.763 18.3439C21.5667 15.3029 24.738 11.9165 24.738 11.9165ZM22.7108 19.2074C22.4952 19.9834 22.3225 20.6733 22.1069 21.4494L25.9237 19.2936L22.7108 19.2074ZM19.4971 18.3439H22.1281L22.688 15.4329L19.4971 18.3439Z" fill="white"/>
</g>
<defs>
<clipPath id="clip0_821_3987">
<rect width="40" height="40" fill="white"/>
</clipPath>
</defs>
</svg>

<svg xmlns="http://www.w3.org/2000/svg" width="40" height="40" fill="none" viewBox="0 0 40 40"><g clip-path="url(#lmton_svg-a)"><path fill="#CCD8E1" d="M20 0c11.046 0 20 8.954 20 20s-8.954 20-20 20S0 31.046 0 20 8.954 0 20 0"/><path fill="#003E69" d="M26 6a8 8 0 0 1 8 8v12a8 8 0 0 1-8 8H14a8 8 0 0 1-8-8V14a8 8 0 0 1 8-8z"/><path fill="#fff" d="M24.738 11.917s-.841 2.955-1.768 6.427H30c-.017.008-4.063 1.902-8.11 3.947a279 279 0 0 1-1.64 5.93l-.02.066c.003-.039 1.1-5.716 1.1-5.716-1.936.981-7.45 3.867-11.33 5.9v-.175l11.46-6.479.496-2.61-3.3-.086c-.035.031-3.771 3.426-3.861 3.515.045-.046 1.145-1.319 3.235-3.538L10 18.894v-.53l8.763-.02c2.804-3.041 5.975-6.428 5.975-6.428m-2.027 7.29c-.216.776-.388 1.466-.604 2.242l3.817-2.155zm-3.214-.863h2.631l.56-2.911z"/></g><defs><clipPath id="lmton_svg-a"><path fill="#fff" d="M0 0h40v40H0z"/></clipPath></defs></svg>
